!!!OTL: Vor der Schlacht (146), S. 325
!!!id: T0315
**kern
*clefG2
*k[b-e-]
*B-:
{8b-
=1
8b-
4f
8d
8e-
4.f
=2yy
8b-
=3
8a
8g
4f
8g
8f}
4r
=4
{4.b-
8a
8g
8a
8b-
8cc
=5
4dd
4cc
4b-}
4r
=6
{4.dd
8cc
8ee-
8ee-
8dd
8dd
=7
8cc
8cc
4b-
4f}
4r
=8
{4.b-
8b-
8cc
8cc
8b-
8b-
=9
8cc
4cc
8dd}
2r
=10
{4.dd
8cc
8ee-
8ee-
8dd
8dd
=11
8cc
8cc
4b-
4f}
4r
=12
{4.b-
8b-
8cc
8cc
8b-
8b-
=13
8cc
8cc
4b-}
2r
==
*-
!!!minrhy: 8
!!!meters: 4/4 ]  ZZ[6
!!!cut: Vor der Schlacht (146), S. 325
!!!reg: Luxemburg
!!!trd: Singendes Volk, Esch-Alzette 1937, posth.
!!!rhy1:   X_XXX_.X  XXX_XX0_
!!!rhy2: X_.XXXXX  X_X_X_0_
!!!key: T0315  08 Bb 4/4 ]  ZZ[6
!!!mod: HEPTATONIK IONISCH]  AMBITUS[9b
!!!kad: -51-53-51
!!!akz: -5-5-7-6_1-631_342-5_122_342-5_122_
!!!fot: 'a__b__c__d__c__dv_
!!!for: 'a__b__c__d__c__cw_
!!!fok: 'S__S__\__/__\__-__
!! PHRAS[VOLLTAKTIG]
!!!fkt: historische, Kriegs- und Soldatenlieder
!!!bem: Stegen, hhh Pletschette (Lehrer), R&uuml;melingen, 1916
!! THILL, Mathias:
!! PR[21] 2K[15] 2G[10] 3K[4] 3G[6] 4A[4] 4Ü[0] 5A[0] 6K[0] 6G[0]
!! 7K[0] 7G[0] 8A[2] MEHR[0] SI[42] ABS[48] SR[25] SP[17]
!! ST[12] 2k[6] 2g[15] 3k[6] 3g[2] 4d[4] 4ü[4] 5d[0] 6k[0] 6g[0]
!! 7k[0] 7g[0] 8d[0] mehr[0] si[38] dm[+4] sr[21] sp[17]
!! 1F[35] 2F[57] 3F[6] 4F[0] LF[0] 2P[2] 3P[0] 4P[0] TRI[0] DF[4] AB[54]
!! TF[0] U3K[0] U3[4] U4[2] U4Ü[0] U5[12] U6K[0] U6[4] U7K[0] U7[10]
!! N1[24] N2K[0] N2[6] N3K[0] N3[16] N4[10] N4Ü[0] N5[10] N6K[0] N6[0]
!!!n7k: 0] N7[0] O1[0] O2K[0] O2[0] O3K[0] O3[0] HÖ[0
!!!RNB: symbol: &uuml;  = u umlaut (UTF-8: Ã¼)
